X: 1061
T: Ana Kurdi
O: Israel
C: Shmulik Gov Ari 2007
F: https://www.youtube.com/watch?v=lSOJ2O1wbz0
M: 2/4
L: 1/8
K: Dm
Q: 1/4=180
%%MIDI program 68 Oboe
%%MIDI drum dddd 35 65 38 45
%%MIDI drumon
Z|\
D2A2|.A2.A2|GFAG|G4|D2A2|.A2.A2|GFAG|G4|
C2G2|.G2.G2|GFGF|F4|C2G2|.G2.G2|FEFE|D4|


